src/img/icons/delete.svg

<?xml version="1.0" encoding="UTF-8"?>
<svg width="14px" height="18px" viewBox="0 0 14 18" version="1.1" xmlns="http://www.w3.org/2000/svg" xmlns:xlink="http://www.w3.org/1999/xlink">
    <!-- Generator: Sketch 50 (54983) - http://www.bohemiancoding.com/sketch -->
    <title>DELETE</title>
    <desc>Created with Sketch.</desc>
    <defs></defs>
    <g id="Welcome" stroke="none" stroke-width="1" fill="none" fill-rule="evenodd">
        <g id="2-1-profile" transform="translate(-1264.000000, -330.000000)" fill="#000000">
            <g id="Group" transform="translate(1173.000000, 319.000000)">
                <g id="DELETE" transform="translate(91.000000, 11.000000)">
                    <g id="rubbish-bin">
                        <path d="M12.7747145,2.11747355 L10.4136933,2.11747355 L10.4136933,0.557210323 C10.4136933,0.243150968 10.1645938,0 9.85579445,0 C9.82583034,0 9.80584666,0.0101729032 9.79609462,0.0203225806 C9.78609135,0.0101729032 9.76610767,0 9.75612724,0 L4.20712561,0 L4.16738662,0 L4.12741925,0 C3.8186199,0 3.57952365,0.243150968 3.57952365,0.557210323 L3.57952365,2.11749677 L1.20852202,2.11749677 C0.530972268,2.11749677 0.00303752039,2.65438452 0.00303752039,3.34342452 L0.00303752039,4.23499355 L0.00303752039,5.34939097 L1.0491093,5.34939097 L1.0491093,16.7671974 C1.0491093,17.4562606 1.56706362,17.9829755 2.24461338,17.9829755 L11.738646,17.9829755 C12.4161958,17.9829755 12.9441077,17.4562606 12.9441077,16.7671974 L12.9441077,5.34939097 L13.980199,5.34939097 L13.980199,4.23499355 L13.980199,3.34342452 C13.980199,2.65438452 13.4520587,2.11747355 12.7747145,2.11747355 Z M4.67533768,1.11439742 L9.30789886,1.11439742 L9.30789886,2.11747355 L4.67533768,2.11747355 L4.67533768,1.11439742 Z M11.8383132,16.7672206 C11.8383132,16.8383148 11.8083491,16.8685548 11.738646,16.8685548 L2.24461338,16.8685548 C2.17491028,16.8685548 2.14494617,16.8382916 2.14494617,16.7672206 L2.14494617,5.34936774 L11.8383132,5.34936774 L11.8383132,16.7672206 Z M12.8744046,4.23497032 L1.10883197,4.23497032 L1.10883197,3.34340129 C1.10883197,3.2724929 1.13879608,3.23187097 1.20849918,3.23187097 L12.7747145,3.23187097 C12.8444405,3.23187097 12.8744046,3.2724929 12.8744046,3.34340129 L12.8744046,4.23497032 Z" id="Shape" fill-rule="nonzero"></path>
                        <rect id="Rectangle-path" fill-rule="nonzero" x="8.99907667" y="6.65635355" width="1.10579445" height="9.21929806"></rect>
                        <rect id="Rectangle-path" fill-rule="nonzero" x="6.44870147" y="6.65635355" width="1.10579445" height="9.21929806"></rect>
                        <rect id="Rectangle-path" fill-rule="nonzero" x="3.89830343" y="6.65635355" width="1.10579445" height="9.21929806"></rect>
                    </g>
                </g>
            </g>
        </g>
    </g>
</svg>

<svg width="14" height="18" xmlns="http://www.w3.org/2000/svg"><path d="M12.775 2.117h-2.361V.557A.553.553 0 009.856 0c-.03 0-.05.01-.06.02a.075.075 0 00-.04-.02H4.127a.545.545 0 00-.547.557v1.56H1.209c-.678 0-1.206.537-1.206 1.226V5.35h1.046v11.418c0 .69.518 1.216 1.196 1.216h9.494c.677 0 1.205-.527 1.205-1.216V5.35h1.036V3.343c0-.689-.528-1.226-1.205-1.226zm-8.1-1.003h4.633v1.003H4.675V1.114zm7.163 15.653c0 .071-.03.102-.1.102H2.246c-.07 0-.1-.03-.1-.102V5.35h9.693v11.418zm1.036-12.532H1.11v-.892c0-.07.03-.111.1-.111h11.566c.07 0 .1.04.1.111v.892z"/><path d="M8.999 6.656h1.106v9.219H8.999zm-2.55 0h1.106v9.219H6.449zm-2.551 0h1.106v9.219H3.898z"/></svg>
